X: 930
T: All About Windmills
R: jig
M: 6/8
K: Dmajor
|:F3 FED|D3 ABd|fee efa|baf edf|
edB A3|D3 ABd|edf dBA|B2e dBA:|
|:E3 EFD|FAB def|eAA BAd|e3 fed|
e3 efd|AFA def|edf dBA|B2e dBA:|
|:FAA B3|dBA B3|fea efa|baf edB|
F2A BAA|dBA B3|edf dBA|B2e dBA:|
|:e3 edf|edB A3|DFA dBA|d2f edB|
e3 edf|edB A3|edf dBA|B2e dBA:|

